packages/components/icon/src/assets/icons/pay.svg

<svg width="24" height="24" viewBox="0 0 24 24" fill="none" xmlns="http://www.w3.org/2000/svg">
<path fill-rule="evenodd" clip-rule="evenodd" d="M13.1591 3C13.2893 3 13.4013 3.04339 13.4954 3.13017C13.5894 3.21694 13.6364 3.33264 13.6364 3.47727V4.90909H14.1136C14.8368 4.90909 15.5093 5.07903 16.1312 5.41891C16.7531 5.75878 17.2665 6.21797 17.6715 6.79649C18.0764 7.375 18.3151 8.01859 18.3874 8.72727V8.77066C18.3874 8.88636 18.3404 8.9876 18.2464 9.07438C18.1524 9.16116 18.0475 9.20455 17.9318 9.20455H16.0227C15.8926 9.20455 15.7769 9.15754 15.6756 9.06353C15.5744 8.96952 15.5021 8.85744 15.4587 8.72727C15.3574 8.43801 15.1875 8.20661 14.9489 8.03306C14.7102 7.8595 14.4318 7.77273 14.1136 7.77273H10.2955C9.90496 7.77273 9.5687 7.91012 9.28667 8.18492C9.00465 8.45971 8.86364 8.79958 8.86364 9.20455C8.86364 9.59504 9.00465 9.9313 9.28667 10.2133C9.5687 10.4954 9.90496 10.6364 10.2955 10.6364H14.1136C14.8946 10.6364 15.6142 10.828 16.2722 11.2113C16.9303 11.5945 17.4509 12.1152 17.8342 12.7732C18.2175 13.4313 18.4091 14.1508 18.4091 14.9318C18.4091 15.7128 18.2175 16.4323 17.8342 17.0904C17.4509 17.7485 16.9303 18.2691 16.2722 18.6524C15.6142 19.0356 14.8946 19.2273 14.1136 19.2273H13.6364V20.6591C13.6364 20.7893 13.5894 20.9013 13.4954 20.9954C13.4013 21.0894 13.2893 21.1364 13.1591 21.1364H11.25C11.1198 21.1364 11.0077 21.0894 10.9137 20.9954C10.8197 20.9013 10.7727 20.7893 10.7727 20.6591V19.2273H10.2955C9.57231 19.2273 8.8998 19.0573 8.27789 18.7175C7.65599 18.3776 7.14256 17.9184 6.7376 17.3399C6.33264 16.7614 6.09401 16.1178 6.02169 15.4091V15.3657C6.02169 15.25 6.0687 15.1488 6.16271 15.062C6.25672 14.9752 6.36157 14.9318 6.47727 14.9318H8.38636C8.51653 14.9318 8.63223 14.9752 8.73347 15.062C8.83471 15.1488 8.90702 15.2572 8.95041 15.3874C9.05165 15.6767 9.22521 15.9117 9.47107 16.0925C9.71694 16.2732 9.99173 16.3636 10.2955 16.3636H14.1136C14.5041 16.3636 14.8404 16.2226 15.1224 15.9406C15.4044 15.6586 15.5455 15.3223 15.5455 14.9318C15.5455 14.5269 15.4044 14.187 15.1224 13.9122C14.8404 13.6374 14.5041 13.5 14.1136 13.5H10.2955C9.51446 13.5 8.79494 13.3084 8.13688 12.9251C7.47882 12.5418 6.95816 12.0212 6.5749 11.3631C6.19163 10.7051 6 9.98554 6 9.20455C6 8.42355 6.19163 7.70403 6.5749 7.04597C6.95816 6.38791 7.47882 5.86725 8.13688 5.48399C8.79494 5.10072 9.51446 4.90909 10.2955 4.90909H10.7727V3.47727C10.7727 3.33264 10.8197 3.21694 10.9137 3.13017C11.0077 3.04339 11.1198 3 11.25 3H13.1591Z" fill="currentColor"/>
</svg>

<svg viewBox="0 0 24 24" fill="none" xmlns="http://www.w3.org/2000/svg"><path fill-rule="evenodd" clip-rule="evenodd" d="M13.16 3c.13 0 .241.043.335.13a.45.45 0 0 1 .141.347V4.91h.478c.723 0 1.395.17 2.017.51.622.34 1.136.799 1.54 1.377.405.579.644 1.223.716 1.931v.044a.402.402 0 0 1-.14.303.453.453 0 0 1-.315.13h-1.91a.496.496 0 0 1-.346-.14.796.796 0 0 1-.217-.337 1.414 1.414 0 0 0-.51-.694 1.383 1.383 0 0 0-.835-.26h-3.819c-.39 0-.726.137-1.008.412a1.367 1.367 0 0 0-.423 1.02c0 .39.14.726.423 1.008.282.282.618.423 1.008.423h3.819c.78 0 1.5.192 2.158.575a4.258 4.258 0 0 1 1.562 1.562c.384.658.575 1.378.575 2.159 0 .78-.191 1.5-.575 2.158a4.258 4.258 0 0 1-1.562 1.562 4.213 4.213 0 0 1-2.158.575h-.478v1.432a.46.46 0 0 1-.14.336.46.46 0 0 1-.337.141H11.25a.46.46 0 0 1-.336-.14.46.46 0 0 1-.141-.337v-1.432h-.477c-.724 0-1.396-.17-2.018-.51a4.475 4.475 0 0 1-1.54-1.377 4.025 4.025 0 0 1-.716-1.93v-.044c0-.116.047-.217.14-.304a.453.453 0 0 1 .315-.13h1.91c.13 0 .245.043.346.13a.72.72 0 0 1 .217.325c.102.29.275.525.521.706.246.18.52.27.825.27h3.818c.39 0 .726-.14 1.008-.422a1.38 1.38 0 0 0 .424-1.01c0-.404-.142-.744-.424-1.019a1.395 1.395 0 0 0-1.008-.412h-3.819c-.78 0-1.5-.192-2.158-.575a4.258 4.258 0 0 1-1.562-1.562A4.213 4.213 0 0 1 6 9.205c0-.781.192-1.501.575-2.159a4.258 4.258 0 0 1 1.562-1.562 4.213 4.213 0 0 1 2.159-.575h.477V3.477a.45.45 0 0 1 .14-.347.479.479 0 0 1 .337-.13h1.91Z" fill="currentColor"/></svg>
